Resources/icons/PartInfo.svg

<?xml version="1.0" encoding="UTF-8" standalone="no"?>
<!-- Created with Inkscape (http://www.inkscape.org/) -->

<svg
   xmlns:dc="http://purl.org/dc/elements/1.1/"
   xmlns:cc="http://creativecommons.org/ns#"
   xmlns:rdf="http://www.w3.org/1999/02/22-rdf-syntax-ns#"
   xmlns:svg="http://www.w3.org/2000/svg"
   xmlns="http://www.w3.org/2000/svg"
   xmlns:xlink="http://www.w3.org/1999/xlink"
   xmlns:sodipodi="http://sodipodi.sourceforge.net/DTD/sodipodi-0.dtd"
   xmlns:inkscape="http://www.inkscape.org/namespaces/inkscape"
   width="64"
   height="64"
   id="svg3559"
   version="1.1"
   inkscape:version="0.92.3 (2405546, 2018-03-11)"
   sodipodi:docname="Asm4_PartL.svg"
   viewBox="0 0 64 64">
  <defs
     id="defs3561">
    <linearGradient
       inkscape:collect="always"
       id="linearGradient73208">
      <stop
         style="stop-color:#c4a000;stop-opacity:1"
         offset="0"
         id="stop73210" />
      <stop
         style="stop-color:#edd400;stop-opacity:1"
         offset="1"
         id="stop73212" />
    </linearGradient>
    <linearGradient
       id="linearGradient73194"
       inkscape:collect="always">
      <stop
         id="stop73202"
         offset="0"
         style="stop-color:#c4a000;stop-opacity:1" />
      <stop
         id="stop73204"
         offset="1"
         style="stop-color:#fce94f;stop-opacity:1" />
    </linearGradient>
    <linearGradient
       id="linearGradient4383-3"
       inkscape:collect="always">
      <stop
         id="stop73188"
         offset="0"
         style="stop-color:#3465a4;stop-opacity:1" />
      <stop
         id="stop73190"
         offset="1"
         style="stop-color:#729fcf;stop-opacity:1" />
    </linearGradient>
    <linearGradient
       inkscape:collect="always"
       xlink:href="#linearGradient73194"
       id="linearGradient4389"
       x1="20.243532"
       y1="37.588112"
       x2="17.243532"
       y2="27.588112"
       gradientUnits="userSpaceOnUse"
       gradientTransform="matrix(0.8,0,0,0.8,12.605141,-2.0704894)" />
    <linearGradient
       inkscape:collect="always"
       xlink:href="#linearGradient73208"
       id="linearGradient4399"
       x1="48.714352"
       y1="45.585785"
       x2="46.714352"
       y2="34.585785"
       gradientUnits="userSpaceOnUse"
       gradientTransform="matrix(0.8,0,0,0.8,14.628486,1.1313711)" />
    <linearGradient
       inkscape:collect="always"
       xlink:href="#linearGradient4383-3"
       id="linearGradient4389-0"
       x1="27.243532"
       y1="54.588112"
       x2="21.243532"
       y2="30.588112"
       gradientUnits="userSpaceOnUse"
       gradientTransform="translate(-1.243533,-2.588112)" />
    <linearGradient
       inkscape:collect="always"
       xlink:href="#linearGradient4393-9"
       id="linearGradient4399-7"
       x1="48.714352"
       y1="45.585785"
       x2="40.714352"
       y2="24.585787"
       gradientUnits="userSpaceOnUse"
       gradientTransform="translate(1.2856487,1.4142136)" />
    <linearGradient
       inkscape:collect="always"
       id="linearGradient4393-9">
      <stop
         style="stop-color:#204a87;stop-opacity:1"
         offset="0"
         id="stop4395-8" />
      <stop
         style="stop-color:#3465a4;stop-opacity:1"
         offset="1"
         id="stop4397-1" />
    </linearGradient>
    <linearGradient
       inkscape:collect="always"
       xlink:href="#linearGradient73208"
       id="linearGradient69042"
       gradientUnits="userSpaceOnUse"
       gradientTransform="matrix(0.8,0,0,0.8,3.4284862,-14.068629)"
       x1="48.714352"
       y1="45.585785"
       x2="46.714352"
       y2="35.585785" />
    <linearGradient
       inkscape:collect="always"
       xlink:href="#linearGradient73194"
       id="linearGradient69056"
       gradientUnits="userSpaceOnUse"
       gradientTransform="matrix(0.8,0,0,0.8,12.605141,-2.0704894)"
       x1="27.243532"
       y1="54.588112"
       x2="22.243532"
       y2="40.588112" />
    <linearGradient
       gradientTransform="matrix(1.3104321,0,0,2.1192635,-210.84488,-13.325191)"
       inkscape:collect="always"
       xlink:href="#linearGradient3873"
       id="linearGradient3879"
       x1="126.79221"
       y1="22.888617"
       x2="131.8111"
       y2="34.041721"
       gradientUnits="userSpaceOnUse" />
    <linearGradient
       inkscape:collect="always"
       id="linearGradient3873">
      <stop
         style="stop-color:#ffffff;stop-opacity:1;"
         offset="0"
         id="stop3875" />
      <stop
         style="stop-color:#d3d7cf;stop-opacity:1"
         offset="1"
         id="stop3877" />
    </linearGradient>
  </defs>
  <sodipodi:namedview
     id="base"
     pagecolor="#ffffff"
     bordercolor="#666666"
     borderopacity="1.0"
     inkscape:pageopacity="0.0"
     inkscape:pageshadow="2"
     inkscape:zoom="5"
     inkscape:cx="-47.482836"
     inkscape:cy="32"
     inkscape:current-layer="layer1"
     showgrid="true"
     inkscape:document-units="px"
     inkscape:grid-bbox="true"
     inkscape:window-width="1680"
     inkscape:window-height="939"
     inkscape:window-x="310"
     inkscape:window-y="139"
     inkscape:window-maximized="0"
     inkscape:snap-global="true">
    <inkscape:grid
       type="xygrid"
       id="grid3007"
       empspacing="4"
       visible="true"
       enabled="true"
       snapvisiblegridlinesonly="true"
       spacingx="0.5"
       spacingy="0.5" />
  </sodipodi:namedview>
  <metadata
     id="metadata3564">
    <rdf:RDF>
      <cc:Work
         rdf:about="">
        <dc:format>image/svg+xml</dc:format>
        <dc:type
           rdf:resource="http://purl.org/dc/dcmitype/StillImage" />
        <dc:title />
        <dc:title>Path-Stock</dc:title>
        <dc:date>2015-07-04</dc:date>
        <dc:relation>http://www.freecadweb.org/wiki/index.php?title=Artwork</dc:relation>
        <dc:publisher>
          <cc:Agent>
            <dc:title>FreeCAD</dc:title>
          </cc:Agent>
        </dc:publisher>
        <dc:identifier>FreeCAD/src/Mod/Path/Gui/Resources/icons/Path-Stock.svg</dc:identifier>
        <dc:rights>
          <cc:Agent>
            <dc:title>FreeCAD LGPL2+</dc:title>
          </cc:Agent>
        </dc:rights>
        <cc:license>https://www.gnu.org/copyleft/lesser.html</cc:license>
        <dc:contributor>
          <cc:Agent>
            <dc:title>[agryson] Alexander Gryson</dc:title>
          </cc:Agent>
        </dc:contributor>
      </cc:Work>
    </rdf:RDF>
  </metadata>
  <g
     id="layer1"
     inkscape:label="Layer 1"
     inkscape:groupmode="layer">
    <path
       sodipodi:nodetypes="ccccc"
       inkscape:connector-curvature="0"
       id="path69052"
       d="M 20.799967,28 V 16.8 l 11.2,4 V 32 Z"
       style="fill:url(#linearGradient4389);fill-opacity:1;fill-rule:nonzero;stroke:#302b00;stroke-width:1.60000002;stroke-linejoin:round;stroke-miterlimit:4;stroke-dasharray:none" />
    <path
       style="fill:url(#linearGradient69056);fill-opacity:1;fill-rule:nonzero;stroke:#302b00;stroke-width:1.60000002;stroke-linejoin:round;stroke-miterlimit:4;stroke-dasharray:none"
       d="M 20.799967,39.2 V 28 l 22.4,8 v 11.2 z"
       id="path4381"
       inkscape:connector-curvature="0"
       sodipodi:nodetypes="ccccc" />
    <path
       style="fill:url(#linearGradient4399);fill-opacity:1;fill-rule:nonzero;stroke:#302b00;stroke-width:1.60000002;stroke-linejoin:round;stroke-miterlimit:4;stroke-dasharray:none"
       d="M 43.199967,47.2 V 36 l 14.4,-13.6 v 10.4 z"
       id="path4391"
       inkscape:connector-curvature="0"
       sodipodi:nodetypes="ccccc" />
    <path
       style="fill:#fce94f;fill-opacity:1;fill-rule:nonzero;stroke:#302b00;stroke-width:1.60000002;stroke-linejoin:round;stroke-miterlimit:4;stroke-dasharray:none"
       d="m 20.799967,16.8 16,-12.8 10.4,4 -15.2,12.8 z"
       id="path4403"
       inkscape:connector-curvature="0"
       sodipodi:nodetypes="ccccc" />
    <path
       style="fill:none;stroke:#fce94f;stroke-width:1.60000002;stroke-linejoin:miter;stroke-miterlimit:4;stroke-dasharray:none"
       d="M 22.406395,38.085016 22.399967,30.4 l 19.2,6.4 0.0065,8.14785 z"
       id="path4381-7"
       inkscape:connector-curvature="0"
       sodipodi:nodetypes="ccccc" />
    <path
       style="fill:none;stroke:#edd400;stroke-width:1.60000002;stroke-linejoin:miter;stroke-miterlimit:4;stroke-dasharray:none"
       d="M 44.804,43.3346 44.8,36.8 56,26 l 0.0017,6.141478 z"
       id="path4391-0"
       inkscape:connector-curvature="0"
       sodipodi:nodetypes="ccccc" />
    <path
       sodipodi:nodetypes="ccccc"
       inkscape:connector-curvature="0"
       id="path69038"
       d="m 31.999967,32 15.2,-13.6 10.4,4 -14.4,13.6 z"
       style="fill:#fce94f;fill-opacity:1;fill-rule:nonzero;stroke:#302b00;stroke-width:1.60000002;stroke-linejoin:round;stroke-miterlimit:4;stroke-dasharray:none" />
    <path
       sodipodi:nodetypes="ccccc"
       inkscape:connector-curvature="0"
       id="path69040"
       d="M 31.999967,32 V 20.8 l 15.2,-12.8 v 10.4 z"
       style="fill:url(#linearGradient69042);fill-opacity:1;fill-rule:nonzero;stroke:#302b00;stroke-width:1.60000002;stroke-linejoin:round;stroke-miterlimit:4;stroke-dasharray:none" />
    <path
       sodipodi:nodetypes="ccccc"
       inkscape:connector-curvature="0"
       id="path69044"
       d="m 33.599967,28.8 v -7.2 l 12,-10.4 v 6.4 z"
       style="fill:none;stroke:#edd400;stroke-width:1.60000002;stroke-linejoin:miter;stroke-miterlimit:4;stroke-dasharray:none" />
    <path
       sodipodi:nodetypes="ccccc"
       inkscape:connector-curvature="0"
       id="path69048"
       d="M 22.406367,26.885016 22.399967,19.2 l 8,2.4 v 8 z"
       style="fill:none;stroke:#fce94f;stroke-width:1.60000002;stroke-linejoin:miter;stroke-miterlimit:4;stroke-dasharray:none" />
    <g
       id="g878"
       transform="matrix(1.4641,0,0,1.4641,78.4204,-25.3486)">
      <rect
         y="34"
         x="-52"
         height="26"
         width="18.999998"
         id="rect3871"
         style="fill:url(#linearGradient3879);fill-opacity:1;stroke:#042a2a;stroke-width:2;stroke-linecap:round;stroke-linejoin:round;stroke-miterlimit:4;stroke-dasharray:none;stroke-dashoffset:0;stroke-opacity:1" />
      <path
         inkscape:connector-curvature="0"
         id="path4109"
         d="m -48,38 h 8"
         style="fill:none;stroke:#888a85;stroke-width:2;stroke-linecap:round;stroke-linejoin:miter;stroke-miterlimit:4;stroke-dasharray:none;stroke-opacity:1" />
      <path
         sodipodi:nodetypes="cc"
         inkscape:connector-curvature="0"
         id="path4109-3"
         d="m -48,42 h 10"
         style="fill:none;stroke:#888a85;stroke-width:2;stroke-linecap:round;stroke-linejoin:miter;stroke-miterlimit:4;stroke-dasharray:none;stroke-opacity:1" />
      <path
         sodipodi:nodetypes="cc"
         inkscape:connector-curvature="0"
         id="path4109-6"
         d="m -48,46 h 4"
         style="fill:none;stroke:#888a85;stroke-width:2;stroke-linecap:round;stroke-linejoin:miter;stroke-miterlimit:4;stroke-dasharray:none;stroke-opacity:1" />
      <path
         sodipodi:nodetypes="cc"
         inkscape:connector-curvature="0"
         id="path4109-6-7"
         d="m -48,52 h 8"
         style="fill:none;stroke:#888a85;stroke-width:2;stroke-linecap:round;stroke-linejoin:miter;stroke-miterlimit:4;stroke-dasharray:none;stroke-opacity:1" />
      <path
         sodipodi:nodetypes="cc"
         inkscape:connector-curvature="0"
         id="path4109-6-5"
         d="m -48,56 h 10"
         style="fill:none;stroke:#888a85;stroke-width:2;stroke-linecap:round;stroke-linejoin:miter;stroke-miterlimit:4;stroke-dasharray:none;stroke-opacity:1" />
    </g>
  </g>
</svg>

<?xml version="1.0" encoding="UTF-8" standalone="no"?>
<!DOCTYPE svg PUBLIC "-//W3C//DTD SVG 1.1//EN" "http://www.w3.org/Graphics/SVG/1.1/DTD/svg11.dtd">
<svg width="100%" height="100%" viewBox="0 0 64 64" version="1.1" xmlns="http://www.w3.org/2000/svg" xmlns:xlink="http://www.w3.org/1999/xlink" xml:space="preserve" xmlns:serif="http://www.serif.com/" style="fill-rule:evenodd;clip-rule:evenodd;stroke-linejoin:round;">
    <g id="Layer-1" serif:id="Layer 1">
        <g transform="matrix(1,0,0,1,-15.7992,0.182355)">
            <path id="path69052" d="M20.8,28L20.8,16.8L32,20.8L32,32L20.8,28Z" style="fill:url(#_Linear1);fill-rule:nonzero;stroke:rgb(48,43,0);stroke-width:1.6px;"/>
            <path id="path4381" d="M20.8,39.2L20.8,28L43.2,36L43.2,47.2L20.8,39.2Z" style="fill:url(#_Linear2);fill-rule:nonzero;stroke:rgb(48,43,0);stroke-width:1.6px;"/>
            <path id="path4391" d="M43.2,47.2L43.2,36L57.6,22.4L57.6,32.8L43.2,47.2Z" style="fill:url(#_Linear3);fill-rule:nonzero;stroke:rgb(48,43,0);stroke-width:1.6px;"/>
            <path id="path4403" d="M20.8,16.8L36.8,4L47.2,8L32,20.8L20.8,16.8Z" style="fill:rgb(252,233,79);fill-rule:nonzero;stroke:rgb(48,43,0);stroke-width:1.6px;"/>
            <path id="path4381-7" d="M22.406,38.085L22.4,30.4L41.6,36.8L41.606,44.948L22.406,38.085Z" style="fill:none;fill-rule:nonzero;stroke:rgb(252,233,79);stroke-width:1.6px;stroke-linejoin:miter;"/>
            <path id="path4391-0" d="M44.804,43.335L44.8,36.8L56,26L56.002,32.141L44.804,43.335Z" style="fill:none;fill-rule:nonzero;stroke:rgb(237,212,0);stroke-width:1.6px;stroke-linejoin:miter;"/>
            <path id="path69038" d="M32,32L47.2,18.4L57.6,22.4L43.2,36L32,32Z" style="fill:rgb(252,233,79);fill-rule:nonzero;stroke:rgb(48,43,0);stroke-width:1.6px;"/>
            <path id="path69040" d="M32,32L32,20.8L47.2,8L47.2,18.4L32,32Z" style="fill:url(#_Linear4);fill-rule:nonzero;stroke:rgb(48,43,0);stroke-width:1.6px;"/>
            <path id="path69044" d="M33.6,28.8L33.6,21.6L45.6,11.2L45.6,17.6L33.6,28.8Z" style="fill:none;fill-rule:nonzero;stroke:rgb(237,212,0);stroke-width:1.6px;stroke-linejoin:miter;"/>
            <path id="path69048" d="M22.406,26.885L22.4,19.2L30.4,21.6L30.4,29.6L22.406,26.885Z" style="fill:none;fill-rule:nonzero;stroke:rgb(252,233,79);stroke-width:1.6px;stroke-linejoin:miter;"/>
        </g>
        <g transform="matrix(1,0,0,1,1.08977,-1.46376)">
            <g transform="matrix(1.59798,0,0,1.59798,-35.5946,-37.5392)">
                <circle cx="49.812" cy="53.063" r="9.713" style="fill:rgb(0,94,255);"/>
            </g>
            <g transform="matrix(1,0,0,1,-2.62829,0.274384)">
                <g transform="matrix(1,0,0,1,0.8581,1.46376)">
                    <rect x="42.506" y="42.758" width="6.537" height="14.021" style="fill:rgb(235,235,235);"/>
                </g>
                <g transform="matrix(1,0,0,1,-2.71829,-0.53624)">
                    <circle cx="49.351" cy="39.841" r="3.588" style="fill:rgb(235,235,235);"/>
                </g>
            </g>
        </g>
    </g>
    <defs>
        <linearGradient id="_Linear1" x1="0" y1="0" x2="1" y2="0" gradientUnits="userSpaceOnUse" gradientTransform="matrix(-2.4,-8,8,-2.4,28.8,28)"><stop offset="0" style="stop-color:rgb(196,160,0);stop-opacity:1"/><stop offset="1" style="stop-color:rgb(252,233,79);stop-opacity:1"/></linearGradient>
        <linearGradient id="_Linear2" x1="0" y1="0" x2="1" y2="0" gradientUnits="userSpaceOnUse" gradientTransform="matrix(-4,-11.2,11.2,-4,34.4,41.6)"><stop offset="0" style="stop-color:rgb(196,160,0);stop-opacity:1"/><stop offset="1" style="stop-color:rgb(252,233,79);stop-opacity:1"/></linearGradient>
        <linearGradient id="_Linear3" x1="0" y1="0" x2="1" y2="0" gradientUnits="userSpaceOnUse" gradientTransform="matrix(-1.6,-8.8,8.8,-1.6,53.6,37.6)"><stop offset="0" style="stop-color:rgb(196,160,0);stop-opacity:1"/><stop offset="1" style="stop-color:rgb(237,212,0);stop-opacity:1"/></linearGradient>
        <linearGradient id="_Linear4" x1="0" y1="0" x2="1" y2="0" gradientUnits="userSpaceOnUse" gradientTransform="matrix(-1.6,-8,8,-1.6,42.4,22.4)"><stop offset="0" style="stop-color:rgb(196,160,0);stop-opacity:1"/><stop offset="1" style="stop-color:rgb(237,212,0);stop-opacity:1"/></linearGradient>
    </defs>
</svg>
